images/synthetix.svg

<svg height="250" viewBox="0 0 250 250" width="250" xmlns="http://www.w3.org/2000/svg"><g fill-rule="evenodd"><path d="m250 125c0 69.035156-55.964844 125-125 125s-125-55.964844-125-125 55.964844-125 125-125 125 55.964844 125 125zm0 0" fill="#1e1a31"/><g fill="#fff"><path d="m131.199219 119.046875c3.390625 0 6.140625 2.75 6.140625 6.140625s-2.75 6.140625-6.140625 6.140625h-15.941407c-15.4375 0-27.957031-12.515625-27.957031-27.949219 0-15.4375 12.519531-27.949218 27.957031-27.949218h41.109376c3.394531 0 6.140624 2.746093 6.140624 6.140624 0 3.390626-2.746093 6.136719-6.140624 6.136719h-41.109376c-8.65625 0-15.671874 7.015625-15.671874 15.671875 0 8.652344 7.015624 15.667969 15.671874 15.667969zm0 0"/><path d="m118.613281 131.328125c-3.390625 0-6.140625-2.75-6.140625-6.140625s2.75-6.140625 6.140625-6.140625h15.941407c15.4375 0 27.953124 12.515625 27.953124 27.949219 0 15.4375-12.515624 27.949218-27.953124 27.949218h-41.109376c-3.394531 0-6.144531-2.75-6.144531-6.140624 0-3.390626 2.75-6.140626 6.144531-6.140626h41.109376c8.65625 0 15.671874-7.015624 15.671874-15.667968s-7.015624-15.667969-15.671874-15.667969zm0 0"/><path d="m98.296875 172.46875-9.984375-7.152344 62.796875-87.617187 9.980469 7.152343zm0 0" fill-opacity=".5"/></g></g></svg>

<?xml version="1.0" encoding="UTF-8"?>
<svg xmlns="http://www.w3.org/2000/svg" xmlns:xlink="http://www.w3.org/1999/xlink" width="250px" height="250px" viewBox="0 0 250 250" version="1.1">
<g id="surface1">
<path style=" stroke:none;fill-rule:evenodd;fill:rgb(11.764706%,10.196079%,19.215687%);fill-opacity:1;" d="M 250 125 C 250 194.035156 194.035156 250 125 250 C 55.964844 250 0 194.035156 0 125 C 0 55.964844 55.964844 0 125 0 C 194.035156 0 250 55.964844 250 125 Z M 250 125 "/>
<path style=" stroke:none;fill-rule:evenodd;fill:rgb(100%,100%,100%);fill-opacity:1;" d="M 131.199219 119.046875 C 134.589844 119.046875 137.339844 121.796875 137.339844 125.1875 C 137.339844 128.578125 134.589844 131.328125 131.199219 131.328125 L 115.257812 131.328125 C 99.820312 131.328125 87.300781 118.8125 87.300781 103.378906 C 87.300781 87.941406 99.820312 75.429688 115.257812 75.429688 L 156.367188 75.429688 C 159.761719 75.429688 162.507812 78.175781 162.507812 81.570312 C 162.507812 84.960938 159.761719 87.707031 156.367188 87.707031 L 115.257812 87.707031 C 106.601562 87.707031 99.585938 94.722656 99.585938 103.378906 C 99.585938 112.03125 106.601562 119.046875 115.257812 119.046875 Z M 131.199219 119.046875 "/>
<path style=" stroke:none;fill-rule:evenodd;fill:rgb(100%,100%,100%);fill-opacity:1;" d="M 118.613281 131.328125 C 115.222656 131.328125 112.472656 128.578125 112.472656 125.1875 C 112.472656 121.796875 115.222656 119.046875 118.613281 119.046875 L 134.554688 119.046875 C 149.992188 119.046875 162.507812 131.5625 162.507812 146.996094 C 162.507812 162.433594 149.992188 174.945312 134.554688 174.945312 L 93.445312 174.945312 C 90.050781 174.945312 87.300781 172.195312 87.300781 168.804688 C 87.300781 165.414062 90.050781 162.664062 93.445312 162.664062 L 134.554688 162.664062 C 143.210938 162.664062 150.226562 155.648438 150.226562 146.996094 C 150.226562 138.34375 143.210938 131.328125 134.554688 131.328125 Z M 118.613281 131.328125 "/>
<path style=" stroke:none;fill-rule:evenodd;fill:rgb(100%,100%,100%);fill-opacity:0.5;" d="M 98.296875 172.46875 L 88.3125 165.316406 L 151.109375 77.699219 L 161.089844 84.851562 Z M 98.296875 172.46875 "/>
</g>
</svg>
